Yaru++/mimetypes/16/application-x-theme.svg

<svg height="16" width="16" xmlns="http://www.w3.org/2000/svg">
  <path d="m14.278664 2.116878h-.838693v-1.272023c0-.481674-.375039-.844895-.872466-.844895h-11.683125c-.495901 0-.88438.3711-.88438.844895v3.089125c0 .491078.39675.890588.88438.890588h11.683125c.481082 0 .872466-.39951.872466-.890588v-1.029408h.838693c.04578 0 .07562.0036.09359.0076.0016.01173.0031.02854.0031.0514v3.268329c0 .147147-.05854.26658-.09669.26658h-6.798983c-.615531 0-1.079678.37898-1.079678.881577v.496883h-.241132c-.125882 0-.237932.07975-.279137.198694l-.743531 2.146507c-.01078.03108-.01624.0638-.01624.09669v5.385785c0 .163148.132283.295383.295384.295383h2.904609c.16315 0 .295383-.132235.295383-.295383v-5.385785c0-.03181-.0051-.06336-.01522-.09349l-.716207-2.146507c-.04022-.120563-.153058-.201892-.280172-.201892h-.416491l-.000672-.495111c.01388-.02637.125095-.09566.292971-.09566h6.798995c.512442 0 .88438-.443377.88438-1.054275v-3.268329c.000097-.530118-.330535-.846618-.884283-.846618z" fill="#808080"/>
</svg>

<svg xmlns="http://www.w3.org/2000/svg" width="16" height="16" version="1.1">
 <path style="fill:#808080" d="M 14.278664,2.116878 H 13.439971 V 0.844855 C 13.439971,0.363181 13.064932,-4e-5 12.567505,-4e-5 H 0.88438 C 0.388479,-4e-5 0,0.37106 0,0.844855 V 3.93398 c 0,0.491078 0.39675,0.890588 0.88438,0.890588 h 11.683125 c 0.481082,0 0.872466,-0.39951 0.872466,-0.890588 V 2.904572 h 0.838693 c 0.04578,0 0.07562,0.0036 0.09359,0.0076 0.0016,0.01173 0.0031,0.02854 0.0031,0.0514 v 3.268329 c 0,0.147147 -0.05854,0.26658 -0.09669,0.26658 H 7.479681 c -0.615531,0 -1.079678,0.37898 -1.079678,0.881577 V 7.876941 H 6.158871 c -0.125882,0 -0.237932,0.07975 -0.279137,0.198694 l -0.743531,2.146507 c -0.01078,0.03108 -0.01624,0.0638 -0.01624,0.09669 v 5.385785 C 5.119963,15.867765 5.252246,16 5.415347,16 h 2.904609 c 0.16315,0 0.295383,-0.132235 0.295383,-0.295383 v -5.385785 c 0,-0.03181 -0.0051,-0.06336 -0.01522,-0.09349 L 7.883912,8.078835 C 7.843692,7.958272 7.730854,7.876943 7.60374,7.876943 H 7.187249 L 7.186577,7.381832 c 0.01388,-0.02637 0.125095,-0.09566 0.292971,-0.09566 h 6.798995 c 0.512442,0 0.88438,-0.443377 0.88438,-1.054275 V 2.963568 C 15.16302,2.43345 14.832388,2.11695 14.27864,2.11695 Z"/>
</svg>
